lib/brands/icons/jquery.svg

<svg xmlns="http://www.w3.org/2000/svg" fill="none" aria-hidden="true" viewBox="0 0 48 48"><g id="jquery-Icon"><g id="Group"><circle id="bg" cx="24" cy="24" r="15.75" fill="#0769AD"/><g id="jquery"><path fill="#78CFF5" d="M31.4895 21.0988C32.9035 21.0988 34.1983 20.6272 35.1994 19.845C34.1602 21.2143 32.4383 22.1096 30.49 22.1096C27.3162 22.1096 24.7433 19.7337 24.7433 16.8029C24.7433 15.1779 25.5342 13.7234 26.7801 12.75C26.1263 13.6114 25.7427 14.6604 25.7427 15.7921C25.7427 18.7229 28.3156 21.0988 31.4895 21.0988Z"/><path fill="#78CFF5" d="M35.1446 24.7409C33.6201 25.9368 31.6464 26.6582 29.4906 26.6582C24.6608 26.6582 20.7455 23.0378 20.7455 18.5718C20.7455 16.8396 21.3345 15.2347 22.3374 13.9188C20.4464 15.4021 19.2463 17.6154 19.2463 20.088C19.2463 24.554 23.1617 28.1744 27.9914 28.1744C30.948 28.1744 33.5618 26.8177 35.1446 24.7409Z"/><path fill="#78CFF5" d="M35.25 29.3663C33.0775 31.4395 30.0679 32.723 26.7421 32.723C20.1184 32.723 14.7489 27.6318 14.7489 21.3515C14.7489 19.3614 15.288 17.4908 16.2354 15.8636C14.0811 17.9194 12.75 20.7515 12.75 23.8785C12.75 30.1588 18.1196 35.25 24.7433 35.25C29.2681 35.25 33.2076 32.8741 35.25 29.3663Z"/></g></g></g></svg>

<svg xmlns="http://www.w3.org/2000/svg" fill="none" aria-hidden="true" viewBox="0 0 48 48"><circle cx="24" cy="24" r="15.75" fill="#0769AD"/><path fill="#78CFF5" d="M31.49 21.099a6.014 6.014 0 0 0 3.71-1.254c-1.04 1.37-2.762 2.265-4.71 2.265-3.174 0-5.747-2.376-5.747-5.307 0-1.625.791-3.08 2.037-4.053a5.009 5.009 0 0 0-1.037 3.042c0 2.93 2.573 5.307 5.747 5.307Z"/><path fill="#78CFF5" d="M35.145 24.74c-1.525 1.197-3.499 1.918-5.654 1.918-4.83 0-8.745-3.62-8.745-8.086a7.64 7.64 0 0 1 1.591-4.653c-1.89 1.483-3.09 3.696-3.09 6.169 0 4.466 3.915 8.086 8.744 8.086 2.957 0 5.57-1.356 7.154-3.433Z"/><path fill="#78CFF5" d="M35.25 29.366c-2.172 2.073-5.182 3.357-8.508 3.357-6.624 0-11.993-5.091-11.993-11.371 0-1.99.539-3.861 1.486-5.488-2.154 2.055-3.485 4.887-3.485 8.014 0 6.28 5.37 11.372 11.993 11.372 4.525 0 8.465-2.376 10.507-5.884Z"/></svg>
